svgs/light/light-emergency.svg

<svg xmlns="http://www.w3.org/2000/svg" viewBox="0 0 448 512"><!--! Font Awesome Pro 6.6.0 by @fontawesome - https://fontawesome.com License - https://fontawesome.com/license (Commercial License) Copyright 2024 Fonticons, Inc. --><path d="M352 320l0-128c0-70.7-57.3-128-128-128S96 121.3 96 192l0 128-32 0 0-128c0-88.4 71.6-160 160-160s160 71.6 160 160l0 128-32 0zM48 384c-8.8 0-16 7.2-16 16l0 32c0 8.8 7.2 16 16 16l352 0c8.8 0 16-7.2 16-16l0-32c0-8.8-7.2-16-16-16L48 384zm0-32l352 0c26.5 0 48 21.5 48 48l0 32c0 26.5-21.5 48-48 48L48 480c-26.5 0-48-21.5-48-48l0-32c0-26.5 21.5-48 48-48zM160 192c0 8.8-7.2 16-16 16s-16-7.2-16-16c0-53 43-96 96-96c8.8 0 16 7.2 16 16s-7.2 16-16 16c-35.3 0-64 28.7-64 64z"/></svg>

<svg xmlns="http://www.w3.org/2000/svg" viewBox="0 0 448 512"><!--! Font Awesome Pro 6.4.2 by @fontawesome - https://fontawesome.com License - https://fontawesome.com/license (Commercial License) Copyright 2023 Fonticons, Inc. --><path d="M352 320V192c0-70.7-57.3-128-128-128S96 121.3 96 192V320H64V192c0-88.4 71.6-160 160-160s160 71.6 160 160V320H352zM48 384c-8.8 0-16 7.2-16 16v32c0 8.8 7.2 16 16 16H400c8.8 0 16-7.2 16-16V400c0-8.8-7.2-16-16-16H48zm0-32H400c26.5 0 48 21.5 48 48v32c0 26.5-21.5 48-48 48H48c-26.5 0-48-21.5-48-48V400c0-26.5 21.5-48 48-48zM160 192c0 8.8-7.2 16-16 16s-16-7.2-16-16c0-53 43-96 96-96c8.8 0 16 7.2 16 16s-7.2 16-16 16c-35.3 0-64 28.7-64 64z"/></svg>
